X:4246
T:Donald Blue
S:Alistair C
R:Reel
O:Shetland
M:4/4
K:D
dB AF AF AB | dB AF E2 D2 |\
dB AF AF Ad | BB2A B2 d2 :|*
|:AB de fa fd | fa fd ed B2 |\
AB de fa fd | BB2A B2d2:|**
